packages/kaspersky-hexa-ui-icons/src/iconsSVGs/16x12/FlagKh.svg

<svg width="16" height="12" viewBox="0 0 16 12" fill="none" xmlns="http://www.w3.org/2000/svg">
<g clip-path="url(#clip0_41816_2958)">
<rect width="16" height="12" rx="2" fill="white"/>
<mask id="mask0_41816_2958" style="mask-type:luminance" maskUnits="userSpaceOnUse" x="0" y="0" width="16" height="12">
<rect width="16" height="12" rx="2" fill="white"/>
</mask>
<g mask="url(#mask0_41816_2958)">
<path fill-rule="evenodd" clip-rule="evenodd" d="M0 3.2H16V0H0V3.2Z" fill="#0F3EB6"/>
<path fill-rule="evenodd" clip-rule="evenodd" d="M0 12H16V8.8H0V12Z" fill="#0F3EB6"/>
<path fill-rule="evenodd" clip-rule="evenodd" d="M0 8.8H16V3.2H0V8.8Z" fill="#ED1A3C"/>
<path d="M6.4762 8.00032H4.95276L5.71448 6.39973H6.4762V8.00032ZM9.14319 8.00032H6.85706V6.39973H9.14319V8.00032ZM11.0475 8.00032H9.52405V6.39973H10.2858L11.0475 8.00032ZM6.09534 4.80013C6.30567 4.8002 6.4762 4.97064 6.4762 5.18098V6.00032H5.71448V5.18098C5.71448 4.97059 5.88494 4.80013 6.09534 4.80013ZM7.99963 4.39973C8.20991 4.39973 8.3803 4.57036 8.38049 4.78059V5.23665H9.14319V6.00032H6.85706V5.23665H7.61877V4.78059C7.61896 4.57047 7.78951 4.39991 7.99963 4.39973ZM9.90491 4.80013C10.1152 4.80023 10.2858 4.97065 10.2858 5.18098V6.00032H9.52405V5.18098C9.52405 4.97059 9.69451 4.80013 9.90491 4.80013Z" fill="white"/>
</g>
</g>
<defs>
<clipPath id="clip0_41816_2958">
<rect width="16" height="12" fill="white"/>
</clipPath>
</defs>
</svg>

<svg xmlns="http://www.w3.org/2000/svg" width="16" height="12" fill="none" viewBox="0 0 16 12"><g clip-path="url(#a)"><rect width="16" height="12" fill="#fff" rx="2"/><mask id="b" width="16" height="12" x="0" y="0" maskUnits="userSpaceOnUse" style="mask-type:luminance"><rect width="16" height="12" fill="#fff" rx="2"/></mask><g mask="url(#b)"><path fill="#0f3eb6" fill-rule="evenodd" d="M0 3.2h16V0H0zM0 12h16V8.8H0z" clip-rule="evenodd"/><path fill="#ed1a3c" fill-rule="evenodd" d="M0 8.8h16V3.2H0z" clip-rule="evenodd"/><path fill="#fff" d="M6.4762 8.0003H4.9528l.7617-1.6006h.7617zm2.667 0H6.857V6.3997h2.286zm1.9043 0H9.5241V6.3997h.7617zM6.0953 4.8001a.381.381 0 0 1 .3809.3809v.8193h-.7617V5.181a.381.381 0 0 1 .3808-.381m1.9043-.4004a.381.381 0 0 1 .3809.3809v.456h.7627v.7637H6.857v-.7637h.7617v-.456a.3814.3814 0 0 1 .3808-.3809M9.9048 4.8a.381.381 0 0 1 .3809.3809v.8193H9.524V5.181a.381.381 0 0 1 .3809-.381"/></g></g><defs><clipPath id="a"><path fill="#fff" d="M0 0h16v12H0z"/></clipPath></defs></svg>
